X:1
T:Living Next Door To Alice
T:Living next door to Alice
T:Nicky Chinn and Mike Chapman
C:Nicky Chinn, Mike Chapman
Z:All Rights Reserved
L:1/8
M:4/4
K:G
V:1 treble 
%%MIDI program 4
V:1
|:"G" dd c2 z2 z B | BBBA A2 z2 |"C" z2 EG G2 z2 | GGGF E4 |"D" z8 | z4 z D E2 |"G" E D3 z4 | %7
w: Sal- ly called when|she got the word *|she * said|I suppose you've heard *||a- bout|A- lice|
w: grew up together two|kids in the park *|carved our initials|deep in the bark *||he and|A- lice|
"D" z4 z2 dd |"G" d2 dd cccc | B B2 A- A2 z2 |"C" z2 EF G F2 E | F2 FE- E2 EE |"D" D2 DD D2 D2 | %13
w: Well I|rushed to the win- dow well I|looked out- side *|I could hard- ly be-|lieve my eyes * As a|big li- mous- ine rolled|
w: Now she|walks through the door * with her|head held high *|Just for a moment I|caught her eye * * A|big li- mous- ine pulled|
 D2 z2 z2 ED |"G" DGGG- G2"D" z2 |"G" BBBB B B2 B | BBBB A G2 G |"C" cccc cccc | cccc c2 cc | %19
w: up in- to|A- lice's * drive *|Dont know why she's leav- ing or|where- she's gon- na go * I|guess she's got her reas- ons but I|just dont want to go "cos for|
w: slowly out of|A- lice's * drive *|||||
"D" dd d2 d2 dd | dd d2 d3 c |"G" c B3 z4 |"G" BB B2 B2 BB- | BBBB A G2 G |"C" cccc cccc | %25
w: twen- ty- four years I've been|liv- ing next door to|A- lice|Twen- ty- four years just wait-|* ing for the chance * to|tell her how I feel and may- be|
w: ||||||
 cccc c2 cc |"D" dddd- dd d2 |"C" cc c2 B3 B |"G" A G4 z z2!dacoda! |1 z4 z2 z D :|2 %30
w: get a se- cond glance now I've|got to get used * to not|liv- ing next door to|A- lice|We|
w: |||||
"D7" E D3 E D3 ||"G" dd d2 c3 c | B2 BB A2 z2 |"C" z2 z E E G2 G/G/ | FFFE- E2 z2 |"D7" z4 z DEE | %36
w: A- lice A- lice|Sal- ly called back and|asked how I felt|and she said hey I|know how to help *|get ov- er|
w: ||||||
"G" E D4 z z2 | z4 z ddd |"G" dddc- c2 c z | B B2 A- A3 E |"C" G G2 G F E2 G | GGFE- E2 EE | %42
w: A- lice|She said now|A- lice is gone * but|I'm still here * you|know I've been wait- ing for|twen- ty- four years * and the|
w: ||||||
"D7" D2 DD D2 DD | D2 z2 z4 || BBBB B B2 B | BBBB A G2 G!D.S.! ||O z4 z2"G" Bc |"D" dddd- ddd z | %48
w: big li- mous- ine dis- ap-|peared.|Dont know why she's leav- ing or|where she's gon- na go * I|Now I'll|nev- er get used * to not|
w: ||||||
"C" cc c2 B3 A |"G" A G3 z4 |] %50
w: liv- ing next door to|A- lice.-|
w: ||

